X: 4
T: No_13_Social_Dance_Song_(a).krn
N: Derived from No_13_Social_Dance_Song_(a).krn
%%abc-version 2.0
%%abcx-abcm2ps-target-version 5.9.1 (29 Sep 2008)
%%abc-creator hum2abc beta
%%abcx-conversion-date 2019/03/15 08:35:00
%%humdrum-veritas 3568125353
%%humdrum-veritas-data 3620411811
%%linebreak <none>
%%barnumbers 0
L: 1/8
M: 3/4
K: Bb clef=bass
[K:clef=bass][M:3/4]z2CC CB,/ z/ | 
B,B, CB, B, z | 
F,F, CC (CB,/) z/ | 
B,B, CB, B, z | 
F,F, CC (CB,/) z/ | 
B,B, CB, B, z ]|:  
F,F, FF F z | 
D/D/C DB, B, z | 
F,F, FF F z | 
D/D/C DB, B, z | 
F,F, CC (CB,/) z/ | 
B,B, CB, B, z | 
F,F, CC (CB,/) z/ | 
B,B, CB, B, z :|]  



